X:12
T:Chant pour la fte de l'Ascension - J35
M:C
L:1/8
K:C
z2"Do"CD "Fa"E2EF|"Mim"G2"Rem"AB "Lam"cB "Fa"cA|"Do"G4 "Fa"A2 "Rem"GF|"Lam"E2 DC "Rem"DD EF|\
"Sol"G2 "Fa"Ac "Sol"c2 B2|"Do"c4||
"Do"EE ED|:"Fa"C4 "Mim"GG GF|"Lam"E4 "Fa"AA Bc|[1"Do"GG FE "Rem"D2 C2|"Sol"D2 D2 EE ED:|[2\
"Rem"dc BA "Sol"G^F G2||
